X: 35121
T: Rolling Waves, The
R: jig
M: 6/8
K: Dmajor
FEF ~D3|{A} D2d .cAG|FEF ~D3|A2F GFE|
FEF ~D3|{A} D2d .cAG|~F3 ~G3|(3.A.c.A F GFE|
FEF ~D3|{A} D2d .cAG|E~F2 ~D3|(3.A.c.A F GFE|
FEF ~D3|{A} D2d .cAG|(3FGA F GBG|A{B}A F GFE||
{A}D2d cAd|cAd cAG|~F2 d .cAG|~A2F GFE|
{A}D2d cAd|ded cAG|(3FGA F GBG|~A2F GFE|
{A}D2d cAd|ded cAG|~F2 d .cAG|~A2F GFE|
{A}D2d cde|(3.g.f.e .d cAG|E~F2~G3|~A2F GFE||

